X: 31694
T: Pasacorredoires 'de Mustad A Millares'
R: reel
M: 4/4
K: Gmajor
GABc d2d2|defg d4|BGBd c2A2|AFAc B2BA|GABc d2d2|
defg d4|BGBd cAFD|1 FGAB G3D:|2 FGAB G3B||
|:d3B GDGB|d^cde d2Bd|c3A FDFA|cded cABc|d3B GDGB|
d^cde d2Bd|e2dc B2cB|1 A2d2 G3B:|2 A2d2 G3D||
GABc B2A2|ABcd e3f|d3B dcBA|GFED GABc|
B2A2 ABcd|e2ge d3B|dcBA G2F2||

